src/assets/skills/mongodb.svg

<svg width="64" height="64" viewBox="0 0 64 64" fill="none" xmlns="http://www.w3.org/2000/svg">
<path d="M31.8001 0L33.6001 3.4L34.8001 5L38.8001 9.6C43.3058 15.7205 45.9452 23.0135 46.4001 30.6C46.5591 35.4252 45.5512 40.2174 43.4621 44.5697C41.3729 48.9221 38.2643 52.706 34.4001 55.6C33.8001 55.6 33.6001 55.2 33.4001 54.6C32.8001 54 32.6001 53 32.4001 52.2C32.1906 51.1471 32.1233 50.0708 32.2001 49V48.6C32.2001 48.6 31.6001 0.6 31.8001 0Z" fill="#599636"/>
<path d="M31.7999 0H31.5999C31.5999 0.8 31.3999 1.4 30.9999 2L29.3999 3.6C22.3806 10.1975 18.0974 19.1922 17.3999 28.8C17.3999 30.8 18.1999 37.8 18.9999 39.8C21.1458 46.3538 25.2678 52.0826 30.7999 56.2L31.1999 55.6C31.2919 55.2046 31.3587 54.8038 31.3999 54.4L32.1999 49L31.7999 0Z" fill="#6CAC48"/>
<path d="M33.6 57.5999C33.6 56.7999 34.0001 56.1999 34.4001 55.5999L33.4001 54.5999L32.8 53.5999C32.4 51.9999 32.2001 50.6 32.2001 49V48.2L32 49.5999C31.9116 51.2119 31.7111 52.8158 31.4 54.4L30.8 56.2C31.4 58.2 31.6 60.2 31.6 62.2V62.7999C31.6 63.5999 31.6001 63.3999 32.4001 63.5999L33.2001 64L33.4001 63.5999V59.4V57.5999H33.6Z" fill="#C2BFBF"/>
</svg>

<svg width="64" height="64" fill="none" xmlns="http://www.w3.org/2000/svg"><path d="m31.8 0 1.8 3.4L34.8 5l4 4.6a39.4 39.4 0 0 1 7.6 21 30 30 0 0 1-12 25c-.6 0-.8-.4-1-1-.6-.6-.8-1.6-1-2.4a12 12 0 0 1-.2-3.2v-.4S31.6.6 31.8 0Z" fill="#599636"/><path d="M31.8 0h-.2c0 .8-.2 1.4-.6 2l-1.6 1.6a38.4 38.4 0 0 0-12 25.2c0 2 .8 9 1.6 11a33.4 33.4 0 0 0 11.8 16.4l.4-.6.2-1.2.8-5.4-.4-49Z" fill="#6CAC48"/><path d="M33.6 57.6c0-.8.4-1.4.8-2l-1-1-.6-1c-.4-1.6-.6-3-.6-4.6v-.8l-.2 1.4c0 1.6-.3 3.2-.6 4.8l-.6 1.8c.6 2 .8 4 .8 6v.6c0 .8 0 .6.8.8l.8.4.2-.4v-6h.2Z" fill="#C2BFBF"/></svg>
